static/rooms/admin_st/trash-bin2.svg

<svg xmlns="http://www.w3.org/2000/svg" width="68" height="85"><g transform="translate(-53.8 80.55)"><path d="M79.4-80.5l2.65.15H79l.4-.15m32.4 5.4h5l.45.1h-6.2l.75-.1m9.1.05l.15.05h-.3l.15-.05" fill="#ccc"/><path d="M60.5-31.15q6.3-.75 7.1-2.8.35-1-.15-1.55 3.45 1.2 6.9 1.55L84-34.5l.1-.05q3.7-.85 7.45-2.7-3.35 2.05-2.7 2.5L91-33.5q1.4.75 1.85 1.8.4 1.05.95-.95.55-2.05 2.5-.65 1.9 1.4.75.45-1.15-1-.3-4.4.6-2.8-2.3-1.55L97.8-41h1.75q1.85 10.55.2 21.15H99.1l-1 .05h-.35l-2.4.1q-3.65-.9-4.3-1.85-1.35 2.45-2.35 2.35-1-.15-3.75-2.25-2.3.95-5.95.05l-2.7-.7-4.95-1.05q-.15 0-.35-1.8-4.75 2.7-5.5 3.55l-.85 1.1q-.4 1.05-1.2 1.35-.55.1-2.55-.65l.2-.2q-1.1-.45-1.45-.7l-.05-.05q.1-.35-.2-.35h-.3l-.8.2-.05-.05.05.05-.55.15q-1 .4-1.9-.75-.85-1-1.6-3.2l-.45-1.25v-.1h.05q.35-7.5 3.5-15l.05.05.1.1.85 1.05.25-.3 1.4.85q1.8 1.1 3.6 2l1.75.75-1.8-.55h-.05q-1.8-.55-2.3-.8l-1.35-1.15q-.85-.9-1.7.55-.9 1.4.65 2.25l.15.25-.2 1.65q0 1.35.35 2.3.4 1 .9 1l.45-.25q.35.2.8.25-.45-.05-.75-.3m20.15 4.65l3.35.35q1.95 0-.05-1.2t1.3-2q3.25-.8 3.15-3.65-.05-2.65-4.3-1.5l-.05.05-.6.15q-4.95 1.55-8 .6l-1.1-.15q-1.1.15 1.45 3.1 3.45 3.9 4.85 4.25m-25.25.2l.85 2.25q.2 1.15.5 1.7T58-23.4q.9-1.65.45-2.45-.5-.85 0-1.8.45-.95-1.05-2.65-1.55-1.75-2.1.6-.55 2.3.1 3.4m29.55 2.95l.15-.05.15-.15-.3.2" fill="#333"/><path d="M67.45-35.5q.5.55.15 1.55-.8 2.05-7.1 2.8l-.5.3q-.5 0-.9-1-.35-.95-.35-2.3l.2-1.65v-.15l-.15-.1q-1.55-.85-.65-2.25.85-1.45 1.7-.55l1.35 1.15q.5.25 2.3.8h.05l1.8.55q1.55.15 2.1.85m27-3.3q2.9-1.25 2.3 1.55-.85 3.4.3 4.4 1.15.95-.75-.45-1.95-1.4-2.5.65-.55 2-.95.95-.45-1.05-1.85-1.8l-2.15-1.25q-.65-.45 2.7-2.5L92.8-38l1.65-.8M75.8-30.75q-2.55-2.95-1.45-3.1l1.1.15q3.05.95 8-.6l.6-.15.05-.05q4.25-1.15 4.3 1.5.1 2.85-3.15 3.65-3.3.8-1.3 2 2 1.2.05 1.2l-3.35-.35q-1.4-.35-4.85-4.25M55.3-29.7q.55-2.35 2.1-.6 1.5 1.7 1.05 2.65-.5.95 0 1.8.45.8-.45 2.45-.95 1.6-1.25 1.05-.3-.55-.5-1.7l-.85-2.25q-.65-1.1-.1-3.4" fill="#535353"/><linearGradient id="a" gradientUnits="userSpaceOnUse" gradientTransform="matrix(.0592 0 0 1.48428 95 40.95)" spreadMethod="pad" x1="-819.2" y1="0" x2="819.2" y2="0"><stop offset=".082" stop-color="#666"/><stop offset=".259" stop-color="#66f"/></linearGradient><path d="M59.2-20.25l-.9-.45-.05-.05.05.05.9.35m0 0l.25.15-.05-.7q.3 0 .2.35l.05.05q.35.25 1.45.7l-.2.2q2 .75 2.55.65.8-.3 1.2-1.35l.85-1.1q.75-.85 5.5-3.55v28.5l-.2-.05-2.5-.85-.55-.3-.6-.3-1.5-.85-.35-.25-.55-.4h-.05L64.65.5v-.75h-.9l-.2-.2-.4-.4-.15-.2-.4-.5q-.7-.85-1.1-1.8l-.25-.55-.05-.2-.1-.25-.45-3.95-1.2-11.85-.25-.1m31.85-1.3q.65.95 4.3 1.85v.1L93.9-5.9l-.15 1.4-.05.2-.75 1.7h-.9v1.3l-.1.1-.05.1-.85.8v-21.25" fill="url(#a)"/><linearGradient id="b" gradientUnits="userSpaceOnUse" gradientTransform="matrix(.0592 0 0 1.48428 105.25 42.5)" spreadMethod="pad" x1="-819.2" y1="0" x2="819.2" y2="0"><stop offset=".082" stop-color="#666"/><stop offset=".259" stop-color="#66f"/></linearGradient><path d="M74.65 2.5l-1.25.3-.5.1q-1.05.3-1.8.65H71v-28.5q.2 1.8.35 1.8l4.95 1.05 2.7.7q3.65.9 5.95-.05V3.25l-2.15-.7-.55-.15-.7-.2-1.75-.25-2.5.05-.4.05-.65.1-1.6.35" fill="url(#b)"/><path d="M99.1-19.85h.3v.05l-.3-.05"/><path d="M85.25-23.55l-.15.15-.15.05.3-.2" fill="#666"/><linearGradient id="c" gradientUnits="userSpaceOnUse" gradientTransform="matrix(.03467 0 0 1.48428 104.1 67.9)" spreadMethod="pad" x1="-819.2" y1="0" x2="819.2" y2="0"><stop offset=".082" stop-color="#666"/><stop offset=".259" stop-color="#66f"/></linearGradient><path d="M84.95 3.15v-24.6q2.75 2.1 3.75 2.25 1 .1 2.35-2.35V-.3l-.25.25-.1.05-1.55 1.2-1 .6-.1.1H88l-.15.1L85 3.2l-.05.05v-.1" fill="url(#c)"/><path d="M60.65-8.3l.45 3.95M64.65-.2l.05.75m.05 0l.55.4 1.85 1.1.6.3.55.3 2.5.85.2.05h.1m-12-24.45l.1.55v.1M60.65-8.3L59.2-20.25M64.65-.2l-.9-.05m31.6-19.35L93.9-5.9l-.2 1.5v.1m0-.1l-.8 1.8h-.85l-.1 1.4M90.7 0l-2.55 1.8-.15.1-.15.1L85 3.2m-2.2-.65l-1.25-.35-1.75-.25-2.5.05-.4.05-2.25.45-1.25.3-.5.1q-1.05.3-1.8.65H71M90.7 0l.35-.3.85-.8m-9.1 3.65l2.15.6M61.2-4.1l.5.8 1.2 2 .25.45.4.4.2.2" fill="none" stroke-width=".5" stroke-linecap="round" stroke-linejoin="round" stroke-miterlimit="3" stroke="#646464"/></g></svg>

<?xml version="1.0" encoding="utf-8"?>
<svg version="1.1" id="Layer_1"
xmlns="http://www.w3.org/2000/svg"
xmlns:xlink="http://www.w3.org/1999/xlink"
xmlns:author="http://www.sothink.com"
width="68px" height="85px"
xml:space="preserve">
<g id="670" transform="matrix(1, 0, 0, 1, -53.8, 80.55)">
<path style="fill:#CCCCCC;fill-opacity:1" d="M79.4,-80.5L82.05 -80.35L79 -80.35L79.4 -80.5M111.8,-75.1L113.75 -75.1L116.8 -75.1L117.25 -75L111.05 -75L111.8 -75.1M120.9,-75.05L121.05 -75L120.75 -75L120.9 -75.05" />
<path style="fill:#333333;fill-opacity:1" d="M60.5,-31.15Q66.8 -31.9 67.6 -33.95Q67.95 -34.95 67.45 -35.5Q70.9 -34.3 74.35 -33.95L84 -34.5L84.1 -34.55Q87.8 -35.4 91.55 -37.25Q88.2 -35.2 88.85 -34.75L91 -33.5Q92.4 -32.75 92.85 -31.7Q93.25 -30.65 93.8 -32.65Q94.35 -34.7 96.3 -33.3Q98.2 -31.9 97.05 -32.85Q95.9 -33.85 96.75 -37.25Q97.35 -40.05 94.45 -38.8L97.8 -41L99.55 -41Q101.4 -30.45 99.75 -19.85L99.4 -19.85L99.1 -19.85L98.1 -19.8L97.75 -19.8L95.35 -19.7Q91.7 -20.6 91.05 -21.55Q89.7 -19.1 88.7 -19.2Q87.7 -19.35 84.95 -21.45Q82.65 -20.5 79 -21.4L76.3 -22.1L71.35 -23.15Q71.2 -23.15 71 -24.95Q66.25 -22.25 65.5 -21.4L64.65 -20.3Q64.25 -19.25 63.45 -18.95Q62.9 -18.85 60.9 -19.6L61.1 -19.8Q60 -20.25 59.65 -20.5L59.6 -20.55Q59.7 -20.9 59.4 -20.9L59.1 -20.9L58.3 -20.7L58.25 -20.75L58.3 -20.7L57.75 -20.55Q56.75 -20.15 55.85 -21.3Q55 -22.3 54.25 -24.5L53.8 -25.75L53.8 -25.85L53.85 -25.85Q54.2 -33.35 57.35 -40.85L57.4 -40.8L57.5 -40.7L58.35 -39.65L58.6 -39.95L60 -39.1Q61.8 -38 63.6 -37.1L65.35 -36.35L63.55 -36.9L63.5 -36.9Q61.7 -37.45 61.2 -37.7L59.85 -38.85Q59 -39.75 58.15 -38.3Q57.25 -36.9 58.8 -36.05L58.95 -35.8L58.75 -34.15Q58.75 -32.8 59.1 -31.85Q59.5 -30.85 60 -30.85L60.45 -31.1Q60.8 -30.9 61.25 -30.85Q60.8 -30.9 60.5 -31.15M80.65,-26.5L84 -26.15Q85.95 -26.15 83.95 -27.35Q81.95 -28.55 85.25 -29.35Q88.5 -30.15 88.4 -33Q88.35 -35.65 84.1 -34.5L84.05 -34.45L83.45 -34.3Q78.5 -32.75 75.45 -33.7L74.35 -33.85Q73.25 -33.7 75.8 -30.75Q79.25 -26.85 80.65 -26.5M55.4,-26.3L56.25 -24.05Q56.45 -22.9 56.75 -22.35Q57.05 -21.8 58 -23.4Q58.9 -25.05 58.45 -25.85Q57.95 -26.7 58.45 -27.65Q58.9 -28.6 57.4 -30.3Q55.85 -32.05 55.3 -29.7Q54.75 -27.4 55.4 -26.3M84.95,-23.35L85.1 -23.4L85.25 -23.55L84.95 -23.35" />
<path style="fill:#535353;fill-opacity:1" d="M67.45,-35.5Q67.95 -34.95 67.6 -33.95Q66.8 -31.9 60.5 -31.15L60 -30.85Q59.5 -30.85 59.1 -31.85Q58.75 -32.8 58.75 -34.15L58.95 -35.8L58.95 -35.95L58.8 -36.05Q57.25 -36.9 58.15 -38.3Q59 -39.75 59.85 -38.85L61.2 -37.7Q61.7 -37.45 63.5 -36.9L63.55 -36.9L65.35 -36.35Q66.9 -36.2 67.45 -35.5M94.45,-38.8Q97.35 -40.05 96.75 -37.25Q95.9 -33.85 97.05 -32.85Q98.2 -31.9 96.3 -33.3Q94.35 -34.7 93.8 -32.65Q93.25 -30.65 92.85 -31.7Q92.4 -32.75 91 -33.5L88.85 -34.75Q88.2 -35.2 91.55 -37.25L92.8 -38L94.45 -38.8M75.8,-30.75Q73.25 -33.7 74.35 -33.85L75.45 -33.7Q78.5 -32.75 83.45 -34.3L84.05 -34.45L84.1 -34.5Q88.35 -35.65 88.4 -33Q88.5 -30.15 85.25 -29.35Q81.95 -28.55 83.95 -27.35Q85.95 -26.15 84 -26.15L80.65 -26.5Q79.25 -26.85 75.8 -30.75M55.3,-29.7Q55.85 -32.05 57.4 -30.3Q58.9 -28.6 58.45 -27.65Q57.95 -26.7 58.45 -25.85Q58.9 -25.05 58 -23.4Q57.05 -21.8 56.75 -22.35Q56.45 -22.9 56.25 -24.05L55.4 -26.3Q54.75 -27.4 55.3 -29.7" />
<linearGradient
id="LinearGradID_3001" gradientUnits="userSpaceOnUse" gradientTransform="matrix(0.0592041, 0, 0, 1.48428, 95, 40.95)" spreadMethod ="pad" x1="-819.2" y1="0" x2="819.2" y2="0" >
<stop  offset="0.0823529" style="stop-color:#666666;stop-opacity:1" />
<stop  offset="0.258824" style="stop-color:#6666FF;stop-opacity:1" />
</linearGradient>
<path style="fill:url(#LinearGradID_3001) " d="M59.2,-20.25L58.3 -20.7L58.25 -20.75L58.3 -20.7L59.2 -20.35M59.2,-20.35L59.45 -20.2L59.4 -20.9Q59.7 -20.9 59.6 -20.55L59.65 -20.5Q60 -20.25 61.1 -19.8L60.9 -19.6Q62.9 -18.85 63.45 -18.95Q64.25 -19.25 64.65 -20.3L65.5 -21.4Q66.25 -22.25 71 -24.95L71 3.55L70.8 3.5L68.3 2.65L67.75 2.35L67.15 2.05L65.65 1.2L65.3 0.95L64.75 0.55L64.7 0.55L64.65 0.5L64.65 -0.2L64.65 -0.25L63.75 -0.25L63.55 -0.45L63.15 -0.85L63 -1.05L62.6 -1.55Q61.9 -2.4 61.5 -3.35L61.25 -3.9L61.2 -4.1L61.1 -4.35L60.65 -8.3L59.45 -20.15L59.2 -20.25M91.05,-21.55Q91.7 -20.6 95.35 -19.7L95.35 -19.6L93.9 -5.9L93.75 -4.5L93.7 -4.3L92.95 -2.6L92.9 -2.6L92.05 -2.6L92.05 -1.3L91.95 -1.2L91.9 -1.1L91.05 -0.3L91.05 -21.55" />
<linearGradient
id="LinearGradID_3002" gradientUnits="userSpaceOnUse" gradientTransform="matrix(0.0592041, 0, 0, 1.48428, 105.25, 42.5)" spreadMethod ="pad" x1="-819.2" y1="0" x2="819.2" y2="0" >
<stop  offset="0.0823529" style="stop-color:#666666;stop-opacity:1" />
<stop  offset="0.258824" style="stop-color:#6666FF;stop-opacity:1" />
</linearGradient>
<path style="fill:url(#LinearGradID_3002) " d="M74.65,2.5L73.4 2.8L72.9 2.9Q71.85 3.2 71.1 3.55L71 3.55L71 -24.95Q71.2 -23.15 71.35 -23.15L76.3 -22.1L79 -21.4Q82.65 -20.5 84.95 -21.45L84.95 3.15L84.95 3.25L82.8 2.55L82.25 2.4L81.55 2.2L79.8 1.95L77.3 2L76.9 2.05L76.25 2.15L74.65 2.5" />
<path style="fill:#000000;fill-opacity:1" d="M99.1,-19.85L99.4 -19.85L99.4 -19.8L99.1 -19.85" />
<path style="fill:#666666;fill-opacity:1" d="M85.25,-23.55L85.1 -23.4L84.95 -23.35L85.25 -23.55" />
<linearGradient
id="LinearGradID_3003" gradientUnits="userSpaceOnUse" gradientTransform="matrix(0.034668, 0, 0, 1.48428, 104.1, 67.9)" spreadMethod ="pad" x1="-819.2" y1="0" x2="819.2" y2="0" >
<stop  offset="0.0823529" style="stop-color:#666666;stop-opacity:1" />
<stop  offset="0.258824" style="stop-color:#6666FF;stop-opacity:1" />
</linearGradient>
<path style="fill:url(#LinearGradID_3003) " d="M84.95,3.15L84.95 -21.45Q87.7 -19.35 88.7 -19.2Q89.7 -19.1 91.05 -21.55L91.05 -0.3L90.8 -0.05L90.7 0L89.15 1.2L88.15 1.8L88.05 1.9L88 1.9L87.85 2L85 3.2L84.95 3.25L84.95 3.15" />
<path style="fill:none;stroke-width:0.5;stroke-linecap:round;stroke-linejoin:round;stroke-miterlimit:3;stroke:#646464;stroke-opacity:1" d="M60.65,-8.3L61.1 -4.35M64.65,-0.2L64.7 0.55M64.75,0.55L65.3 0.95L67.15 2.05L67.75 2.35L68.3 2.65L70.8 3.5L71 3.55L71.1 3.55M59.1,-20.9L59.2 -20.35L59.2 -20.25M60.65,-8.3L59.2 -20.25M64.65,-0.2L63.75 -0.25M95.35,-19.6L93.9 -5.9L93.7 -4.4L93.7 -4.3M93.7,-4.4L92.9 -2.6L92.05 -2.6L91.95 -1.2M90.7,0L88.15 1.8L88 1.9L87.85 2L85 3.2M82.8,2.55L81.55 2.2L79.8 1.95L77.3 2L76.9 2.05L74.65 2.5L73.4 2.8L72.9 2.9Q71.85 3.2 71.1 3.55L71 3.55M90.7,0L91.05 -0.3L91.9 -1.1M82.8,2.55L84.95 3.15" />
<path style="fill:none;stroke-width:0.5;stroke-linecap:round;stroke-linejoin:round;stroke-miterlimit:3;stroke:#646464;stroke-opacity:1" d="M61.2,-4.1L61.7 -3.3L62.9 -1.3L63.15 -0.85L63.55 -0.45L63.75 -0.25" />
</g>
</svg>
